!!!!SEGMENT: pl-cz--i-169--001_zebrowski-marcin-jozef--andante-in-g.krn
!!!cenid: 17xx:2319
!!!COM: Żebrowski, Marcin Józef
!!!COM-rismID: pe30020322
!!!CDT: 1702-1770/06/29
!!!CNT: Polish
!!!OTL: Andante in G
!!!PDT:
!!!AGN:
!!!SMS-siglum: PL-CZ
!!!SMS-shelfmark: I-169
!!!SMS-shelfwork: 001 W
!!!SMS-variant:
!!!SMS-altvar:
!!!NIFC-rismSourceID: 300033511
!!!NIFC-islandoraID: pl-cz:983
!!!URL-pdf-islandora: https://repozytorium.nifc.pl/islandora/object/pl-cz%3A983/datastream/PDF/view
!!!URL-scan: https://polish.musicsources.pl/pl/lokalizacje/galeria/rekopisy/572 @EN{Scan on Polish Music Sources Website} @PL{Skany w portalu Dziedzictwo Muzyki Polskiej w otwartym dostępie}
!!!ONB-nifc: UWAGA: w zbiorze 2 Sonaty: 1. in G (Andante 1mo) i 2. in Es (Andante 2do)
!!!AIN: 1 cbass 2 cor 2 oboe 1 organ 2 violn
!!!key: G
**kern	**dynam	**fba	**kern	**dynam	**kern	**dynam	**kern	**dynam	**kern	**dynam	**kern	**dynam	**kern	**dynam	**kern	**dynam
*part8	*part8	*part8	*part7	*part7	*part6	*part6	*part5	*part5	*part4	*part4	*part3	*part3	*part2	*part2	*part1	*part1
*staff8	*	*	*staff7	*	*staff6	*	*staff5	*	*staff4	*	*staff3	*	*staff2	*	*staff1	*
*I"Organo	*	*	*I"Basso.	*	*I"Violino Secondo.	*	*I"Violino Primo	*	*I"Corno Secondo ex G	*	*I"Corno Primo ex G	*	*I"Hoboe Secondo	*	*I"Hoboe Primo.	*
*I'org	*	*	*I'b	*	*I'vl II	*	*I'vl I	*	*I'cor II in G	*	*I'cor I in G	*	*I'ob II	*	*I'ob I	*
*ICklav	*	*	*ICstr	*	*ICstr	*	*ICstr	*	*ICbras	*	*ICbras	*	*ICww	*	*ICww	*
*Iorgan	*	*	*Icbass	*	*Ivioln	*	*Ivioln	*	*Icor	*	*Icor	*	*Ioboe	*	*Ioboe	*
*clefF4	*	*	*clefF4	*	*clefG2	*	*clefG2	*	*clefG2	*	*clefG2	*	*clefG2	*	*clefG2	*
*G:	*	*	*G:	*	*G:	*	*G:	*	*G:	*	*G:	*	*G:	*	*G:	*
*	*	*	*	*	*	*	*	*	*ITrd3c5	*	*ITrd3c5	*	*	*	*	*
*k[f#]	*	*	*k[f#]	*	*k[f#]	*	*k[f#]	*	*k[f#]	*	*k[f#]	*	*k[f#]	*	*k[f#]	*
*M2/4	*	*	*M2/4	*	*M2/4	*	*M2/4	*	*M2/4	*	*M2/4	*	*M2/4	*	*M2/4	*
=1	=1	=1	=1	=1	=1	=1	=1	=1	=1	=1	=1	=1	=1	=1	=1	=1
*	*	*	*	*	*	*	*	*	*2\right	*	*2\right	*	*2\right	*	*2\right	*
!LO:TX:a:B:t=Andante. 1.mo	!	!	!LO:TX:a:B:t=Andante. 1mo.	!	!LO:TX:a:B:t=Andante. 1mo	!	!LO:TX:a:B:t=Andante. 1mo.	!	!LO:TX:a:B:t=Andante 1mo	!	!LO:TX:a:B:t=Andante. 1mo.	!	!LO:TX:a:B:t=Andante. 1mo	!	!LO:TX:a:B:t=Andante. 1mo	!
8GG`/L	.	.	8GG`/L	.	(16B/LL	.	(16d/LL	.	[2b\	.	[2dd\	.	[2b\	.	[2dd\	.
.	.	.	.	.	16d/)	.	16g/)	.	.	.	.	.	.	.	.	.
8GG`/	.	.	8GG`/	.	(16d/	.	(16g/	.	.	.	.	.	.	.	.	.
.	.	.	.	.	16g/JJ)	.	16b/JJ)	.	.	.	.	.	.	.	.	.
8GG`/	.	.	8GG`/	.	(16g/LL	.	(16b\LL	.	.	.	.	.	.	.	.	.
.	.	.	.	.	16b/)	.	16dd\)	.	.	.	.	.	.	.	.	.
8GG`/J	.	.	8GG`/J	.	(16b/	.	(16dd\	.	.	.	.	.	.	.	.	.
.	.	.	.	.	16dd/JJ)	.	16gg\JJ)	.	.	.	.	.	.	.	.	.
=2	=2	=2	=2	=2	=2	=2	=2	=2	=2	=2	=2	=2	=2	=2	=2	=2
!	!	!	!	!	!	!	!	!LO:DY:t=pia&colon;	!	!	!	!	!	!	!	!
!	!	!	!	!	!	!LO:DY:t=pia&colon;	!	!	!	!	!	!	!	!	!	!
!	!	!	!	!	!	!	!	!	!	!	!	!	!	!LO:DY:t=pia&colon;	!	!LO:DY:t=pia&colon;
!	!LO:DY:t=pia.	!	!	!LO:DY:t=pia&colon;	!	!	!	!	!	!LO:DY:t=pia&colon;	!	!LO:DY:t=pia&colon;	!	!	!	!
8GG/L	p	.	8GG/L	p	(16dd/LL	p	(16gg\LL	p	2b\]	p	2dd\]	p	2b\]	p	2dd\]	p
.	.	.	.	.	16b/)	.	16dd\)	.	.	.	.	.	.	.	.	.
8GG/	.	.	8GG/	.	(16b/	.	(16dd\	.	.	.	.	.	.	.	.	.
.	.	.	.	.	16g/JJ)	.	16b\JJ)	.	.	.	.	.	.	.	.	.
8GG/	.	.	8GG/	.	(16g/LL	.	(16b/LL	.	.	.	.	.	.	.	.	.
.	.	.	.	.	16d/)	.	16g/)	.	.	.	.	.	.	.	.	.
8GG/J	.	.	8GG/J	.	(16d/	.	(16g/	.	.	.	.	.	.	.	.	.
.	.	.	.	.	16B/JJ)	.	16d/JJ)	.	.	.	.	.	.	.	.	.
=3	=3	=3	=3	=3	=3	=3	=3	=3	=3	=3	=3	=3	=3	=3	=3	=3
!	!	!	!	!	!	!	!	!LO:DY:t=for&colon;	!	!	!	!	!	!	!	!
!	!	!	!	!	!	!LO:DY:t=for&colon;	!	!	!	!	!	!	!	!	!	!
!	!LO:DY:t=for&colon;	!	!	!LO:DY:t=for&colon;	!	!	!	!	!	!	!	!LO:DY:t=for&colon;	!	!LO:DY:t=for	!	!LO:DY:t=for
8GG/L	f	6 4	8GG/L	f	(16c/LL	f	(16e/LL	f	8r	.	8r	f	[2cc\	f	[2ee\	f
.	.	.	.	.	16e/)	.	16g/)	.	.	.	.	.	.	.	.	.
!	!	!	!	!	!	!	!	!	!	!LO:DY:t=for&colon;	!	!	!	!	!	!
8GG/	.	.	8GG/	.	(16e/	.	(16g/	.	16G/LL	f	16g\LL	.	.	.	.	.
.	.	.	.	.	16g/JJ)	.	16cc/JJ)	.	16G/JJ	.	16g\JJ	.	.	.	.	.
8GG/	.	.	8GG/	.	(16g/LL	.	(16cc\LL	.	8G/L	.	8g\L	.	.	.	.	.
.	.	.	.	.	16cc/)	.	16ee\)	.	.	.	.	.	.	.	.	.
8GG/J	.	.	8GG/J	.	(16cc/	.	(16ee\	.	8G/J	.	8g\J	.	.	.	.	.
.	.	.	.	.	16ee/JJ)	.	16gg\JJ)	.	.	.	.	.	.	.	.	.
=4	=4	=4	=4	=4	=4	=4	=4	=4	=4	=4	=4	=4	=4	=4	=4	=4
!	!	!	!	!	!	!	!	!LO:DY:t=pia&colon;	!	!	!	!	!	!	!	!
!	!	!	!	!	!	!LO:DY:t=pia&colon;	!	!	!	!	!	!	!	!	!	!
!	!	!	!	!	!	!	!	!	!	!	!	!	!	!LO:DY:t=pia.	!	!LO:DY:t=pia&colon;
!	!LO:DY:t=pia&colon;	!	!	!LO:DY:t=pia&colon;	!	!	!	!	!	!LO:DY:t=pia&colon;	!	!LO:DY:t=pia&colon;	!	!	!	!
8GG/L	p	6 4	8GG/L	p	(16ee/LL	p	(16gg\LL	p	2G/	p	2g\	p	2cc\]	p	2ee\]	p
.	.	.	.	.	16cc/)	.	16ee\)	.	.	.	.	.	.	.	.	.
8GG/	.	.	8GG/	.	(16cc/	.	(16ee\	.	.	.	.	.	.	.	.	.
.	.	.	.	.	16g/JJ)	.	16cc\JJ)	.	.	.	.	.	.	.	.	.
8GG/	.	.	8GG/	.	(16g/LL	.	(16cc\LL	.	.	.	.	.	.	.	.	.
.	.	.	.	.	16e/)	.	16g\)	.	.	.	.	.	.	.	.	.
8GG/J	.	.	8GG/J	.	(16e/	.	(16g\	.	.	.	.	.	.	.	.	.
.	.	.	.	.	16c/JJ)	.	16e\JJ)	.	.	.	.	.	.	.	.	.
=5	=5	=5	=5	=5	=5	=5	=5	=5	=5	=5	=5	=5	=5	=5	=5	=5
!	!	!	!	!	!	!	!	!LO:DY:t=for&colon;	!	!	!	!	!	!	!	!
!	!	!	!	!	!	!LO:DY:t=for&colon;	!	!	!	!	!	!	!	!	!	!
!	!LO:DY:t=for	!	!	!LO:DY:t=for&colon;	!	!	!	!	!	!	!	!	!	!LO:DY:t=for&colon;	!	!LO:DY:t=for
8AA/L	f	6	8AA/L	f	(16c/LL	f	(16f#/LL	f	8r	.	8r	.	[2cc\	f	[2ff#\	f
.	.	.	.	.	16f#/)	.	16a/)	.	.	.	.	.	.	.	.	.
!	!	!	!	!	!	!	!	!	!	!LO:DY:t=for	!	!LO:DY:t=for	!	!	!	!
8AA/	.	.	8AA/	.	(16f#/	.	(16a/	.	8a\L	f	8cc\L	f	.	.	.	.
.	.	.	.	.	16a/JJ)	.	16cc/JJ)	.	.	.	.	.	.	.	.	.
8AA/	.	.	8AA/	.	(16a\LL	.	(16cc\LL	.	8a\	.	8cc\	.	.	.	.	.
.	.	.	.	.	16cc\)	.	16ff#\)	.	.	.	.	.	.	.	.	.
8AA/J	.	.	8AA/J	.	(16cc\	.	(16ff#\	.	8a\J	.	8cc\J	.	.	.	.	.
.	.	.	.	.	16ff#\JJ)	.	16aa\JJ)	.	.	.	.	.	.	.	.	.
=6	=6	=6	=6	=6	=6	=6	=6	=6	=6	=6	=6	=6	=6	=6	=6	=6
!	!	!	!	!	!	!	!	!	!LO:TX:a:t=t.	!	!LO:TX:a:t=t.	!	!	!	!	!
!	!	!	!	!	!	!	!	!LO:DY:t=pia&colon;	!	!	!	!	!	!	!	!
!	!	!	!	!	!	!LO:DY:t=pia&colon;	!	!	!	!	!	!	!	!	!	!
!	!	!	!	!	!	!	!	!	!	!	!	!	!	!LO:DY:t=pia&colon;	!	!LO:DY:t=pia&colon;
!	!LO:DY:t=pia&colon;	!	!	!LO:DY:t=pia&colon;	!	!	!	!	!	!LO:DY:t=pia&colon;	!	!LO:DY:t=pia&colon;	!	!	!	!
8D/L	p	7	8D/L	p	(16ff#\LL	p	(16aa\LL	p	2a\	p	2cc\	p	2cc\]	p	2ff#\]	p
.	.	.	.	.	16cc\)	.	16ff#\)	.	.	.	.	.	.	.	.	.
8D/	.	.	8D/	.	(16cc\	.	(16ff#\	.	.	.	.	.	.	.	.	.
.	.	.	.	.	16a\JJ)	.	16cc\JJ)	.	.	.	.	.	.	.	.	.
8D/	.	.	8D/	.	(16a/LL	.	(16cc\LL	.	.	.	.	.	.	.	.	.
.	.	.	.	.	16f#/)	.	16a\)	.	.	.	.	.	.	.	.	.
8D/J	.	.	8D/J	.	(16f#/	.	(16a\	.	.	.	.	.	.	.	.	.
.	.	.	.	.	16c/JJ)	.	16f#\JJ)	.	.	.	.	.	.	.	.	.
=7	=7	=7	=7	=7	=7	=7	=7	=7	=7	=7	=7	=7	=7	=7	=7	=7
!	!	!	!	!	!	!	!	!	!	!	!	!	!	!	!	!
!	!	!	!	!	!	!	!	!LO:DY:t=for&colon;	!	!	!	!	!	!	!	!
!	!	!	!	!	!	!LO:DY:t=for&colon;	!	!	!	!	!	!	!	!	!	!
!	!	!	!	!	!	!	!	!	!	!	!	!	!	!LO:DY:t=for	!	!LO:DY:t=for
!	!LO:DY:t=for.	!	!	!LO:DY:t=for&colon;	!	!	!	!	!	!LO:DY:t=for	!	!LO:DY:t=for&colon;	!	!	!	!
8G\L	f	.	8G\L	f	8B`/L	f	8g/L	f	8g`\L	f	8b\L	f	8b\L	f	8gg\L	f
8GG`/	.	.	8GG`/	.	8B`/	.	8d`/	.	8B`/	.	8d`/	.	16.b\L	.	16.dd\L	.
.	.	.	.	.	.	.	.	.	.	.	.	.	32cc\JJk	.	32ee\JJk	.
8GG`/	.	.	8GG`/	.	8B`/	.	8d`/	.	8B`/	.	8d`/	.	16.b\LL	.	16.dd\LL	.
.	.	.	.	.	.	.	.	.	.	.	.	.	32a\K	.	32cc\K	.
8GG`/J	.	.	8GG`/J	.	8B`/J	.	8d`/J	.	8B`/J	.	8d`/J	.	16.b\	.	16.dd\	.
.	.	.	.	.	.	.	.	.	.	.	.	.	32cc\JJk	.	32ee\JJk	.
=8	=8	=8	=8	=8	=8	=8	=8	=8	=8	=8	=8	=8	=8	=8	=8	=8
4GG/	.	.	4GG/	.	4B/	.	4d/	.	4B/	.	4d/	.	4b/	.	4dd\	.
4r	.	.	4r	.	4r	.	4r	.	4r	.	4r	.	4r	.	32r	.
!	!	!	!	!	!	!	!	!	!	!	!	!	!	!	!LO:TX:b:t=Solo.	!
.	.	.	.	.	.	.	.	.	.	.	.	.	.	.	32g/LLL	.
.	.	.	.	.	.	.	.	.	.	.	.	.	.	.	(32a/	.
.	.	.	.	.	.	.	.	.	.	.	.	.	.	.	32b/	.
.	.	.	.	.	.	.	.	.	.	.	.	.	.	.	32cc/	.
.	.	.	.	.	.	.	.	.	.	.	.	.	.	.	32dd/	.
.	.	.	.	.	.	.	.	.	.	.	.	.	.	.	32ee/	.
.	.	.	.	.	.	.	.	.	.	.	.	.	.	.	32ff#/JJJ)	.
!	!	!	!	!	!LO:LB:g=original	!	!	!	!	!	!	!	!	!	!	!
=9	=9	=9	=9	=9	=9	=9	=9	=9	=9	=9	=9	=9	=9	=9	=9	=9
!	!	!	!	!	!	!	!	!	!LO:TX:a:t=13.	!	!LO:TX:a:t=9.	!	!LO:TX:a:t=2.	!	!	!
!	!	!	!	!	!	!	!	!LO:DY:t=pia&colon;	!	!	!	!	!	!	!	!
!	!LO:DY:t=pia&colon;	!	!	!LO:DY:t=piano	!	!LO:DY:t=pia&colon;	!	!	!	!	!	!	!	!	!	!
8E\L	p	.	8E\L	p	8g/L	p	8b\	p	2r	.	2r	.	2r	.	(8.gg\L	.
8F#\	.	.	8F#\	.	8a/	.	4ee\	.	.	.	.	.	.	.	.	.
.	.	.	.	.	.	.	.	.	.	.	.	.	.	.	32aa\LL	.
.	.	.	.	.	.	.	.	.	.	.	.	.	.	.	32bb\JJJ)	.
8G\	.	6	8G\	.	8b/	.	.	.	.	.	.	.	.	.	(32ee\KLL	.
.	.	.	.	.	.	.	.	.	.	.	.	.	.	.	16.gg\JJ)	.
8G#X\J	.	5	8G#X\J	.	8b/J	.	8dd\	.	.	.	.	.	.	.	(32b\KLL	.
.	.	.	.	.	.	.	.	.	.	.	.	.	.	.	16.ee\JJ)	.
=10	=10	=10	=10	=10	=10	=10	=10	=10	=10	=10	=10	=10	=10	=10	=10	=10
.	.	.	.	.	.	.	.	.	.	.	.	.	.	.	8qqdd/	.
8A\L	.	#	8A\L	.	8e/L	.	8cc#X\L	.	2r	.	2r	.	2r	.	8.cc#X\L	.
8A\	.	.	8A\	.	8e/	.	8cc#\	.	.	.	.	.	.	.	.	.
.	.	.	.	.	.	.	.	.	.	.	.	.	.	.	16dd\Jk	.
!	!	!	!	!	!	!	!	!	!	!	!	!	!	!	!LO:TX:t=P:problem= problem klamry łukowej	!
8C\	.	6 5	8C\	.	8a/	.	8ee\	.	.	.	.	.	.	.	24ee\LL	.
.	.	.	.	.	.	.	.	.	.	.	.	.	.	.	24dd\	.
.	.	.	.	.	.	.	.	.	.	.	.	.	.	.	24cc#\JJ	.
!	!	!	!	!	!	!	!	!	!	!	!	!	!	!	!LO:LB:g=original	!
!	!	!	!	!	!	!	!	!	!	!	!	!	!	!	!LO:TX:t=P:problem= problem klamry łukowej	!
8C#X\J	.	.	8C#X\J	.	8g/J	.	8ee\J	.	.	.	.	.	.	.	24b/LL	.
.	.	.	.	.	.	.	.	.	.	.	.	.	.	.	24a/	.
.	.	.	.	.	.	.	.	.	.	.	.	.	.	.	24g/JJ	.
=11	=11	=11	=11	=11	=11	=11	=11	=11	=11	=11	=11	=11	=11	=11	=11	=11
!	!	!	!	!	!	!	!	!	!	!	!	!	!LO:TX:b:t=Solo.	!	!	!
4D\	.	.	4D\	.	4f#/	.	4a/	.	2r	.	2r	.	16r	.	16f#/LL	.
.	.	.	.	.	.	.	.	.	.	.	.	.	.	.	.	.
.	.	.	.	.	.	.	.	.	.	.	.	.	(32f#/LLL	.	(32a/	.
.	.	.	.	.	.	.	.	.	.	.	.	.	.	.	.	.
.	.	.	.	.	.	.	.	.	.	.	.	.	32a/JJJ)	.	32dd/JJ)	.
.	.	.	.	.	.	.	.	.	.	.	.	.	16dd\LL	.	16ff#\LL	.
.	.	.	.	.	.	.	.	.	.	.	.	.	16dd\JJ	.	16ff#\JJ	.
!	!	!	!	!	!	!	!	!	!	!	!	!	!LO:TX:a:t=t.	!	!LO:TX:a:t=t.	!
16r	.	.	16r	.	16r	.	16r	.	.	.	.	.	[4dd\	.	[4ff#\	.
16D\LL	.	.	16D\LL	.	16d/LL	.	16f#/LL	.	.	.	.	.	.	.	.	.
16D\	.	.	16D\	.	16d/	.	16f#/	.	.	.	.	.	.	.	.	.
16D\JJ	.	.	16D\JJ	.	16d/JJ	.	16f#/JJ	.	.	.	.	.	.	.	.	.
!	!	!	!	!	!	!	!LO:LB:g=original	!	!	!	!	!	!	!	!	!
=12	=12	=12	=12	=12	=12	=12	=12	=12	=12	=12	=12	=12	=12	=12	=12	=12
4A\	.	#	4A\	.	4c#X/	.	4e/	.	2r	.	2r	.	16dd\LL]	.	8ff#\]	.
.	.	.	.	.	.	.	.	.	.	.	.	.	(32cc#X\L	.	.	.
.	.	.	.	.	.	.	.	.	.	.	.	.	32dd\JJJ	.	.	.
.	.	.	.	.	.	.	.	.	.	.	.	.	16ee\LL)	.	16gg\LL	.
.	.	.	.	.	.	.	.	.	.	.	.	.	16ee\JJ	.	16gg\JJ	.
!	!	!	!	!	!	!	!	!	!	!	!	!	!LO:TX:a:t=t.	!	!LO:TX:a:t=t.	!
16r	.	.	16r	.	16r	.	16r	.	.	.	.	.	[4ee\	.	[4gg\	.
16AA/LL	.	7	16AA/LL	.	16c#/LL	.	16e/LL	.	.	.	.	.	.	.	.	.
16AA/	.	.	16AA/	.	16c#/	.	16e/	.	.	.	.	.	.	.	.	.
16AA/JJ	.	.	16AA/JJ	.	16c#/JJ	.	16e/JJ	.	.	.	.	.	.	.	.	.
!	!	!	!LO:LB:g=original	!	!	!	!	!	!	!	!	!	!	!	!	!
=13	=13	=13	=13	=13	=13	=13	=13	=13	=13	=13	=13	=13	=13	=13	=13	=13
4D/	.	.	4D/	.	4d/	.	4f#/	.	2r	.	2r	.	16ee\LL]	.	16gg\LL]	.
.	.	.	.	.	.	.	.	.	.	.	.	.	(32dd\L	.	(32ff#\L	.
.	.	.	.	.	.	.	.	.	.	.	.	.	32ee\JJJ	.	32gg\JJJ)	.
.	.	.	.	.	.	.	.	.	.	.	.	.	16ff#\LL)	.	16aa\LL	.
.	.	.	.	.	.	.	.	.	.	.	.	.	16ff#\JJ	.	16aa\JJ	.
!LO:LB:g=original	!	!	!	!	!	!	!	!	!	!	!	!	!LO:TX:a:t=t.	!	!LO:TX:a:t=t.	!
16r	.	.	16r	.	16r	.	16r	.	.	.	.	.	[4ff#\	.	[4aa\	.
16D\LL	.	.	16D\LL	.	16f#/LL	.	16a/LL	.	.	.	.	.	.	.	.	.
16D\	.	.	16D\	.	16f#/	.	16a/	.	.	.	.	.	.	.	.	.
16D\JJ	.	.	16D\JJ	.	16f#/JJ	.	16a/JJ	.	.	.	.	.	.	.	.	.
=14	=14	=14	=14	=14	=14	=14	=14	=14	=14	=14	=14	=14	=14	=14	=14	=14
4G\	.	9:8 7:6	4G\	.	4g/	.	4b/	.	2r	.	2r	.	16ff#\LL]	.	16aa\LL]	.
.	.	.	.	.	.	.	.	.	.	.	.	.	(32ee\L	.	(32gg\L	.
.	.	.	.	.	.	.	.	.	.	.	.	.	32ff#\JJJ	.	32aa\JJJ)	.
.	.	.	.	.	.	.	.	.	.	.	.	.	16gg\LL)	.	16bb\LL	.
.	.	.	.	.	.	.	.	.	.	.	.	.	16gg\JJ	.	16bb\JJ	.
!	!	!	!	!	!	!	!	!	!	!	!	!	!LO:TX:a:t=t.	!	!LO:TX:a:t=t.	!
16r	.	.	16r	.	16r	.	16r	.	.	.	.	.	4gg\	.	4bb\	.
16GG/LL	.	.	16GG/LL	.	16d/LL	.	16b/LL	.	.	.	.	.	.	.	.	.
16GG/	.	.	16GG/	.	16d/	.	16b/	.	.	.	.	.	.	.	.	.
16GG/JJ	.	.	16GG/JJ	.	16d/JJ	.	16b/JJ	.	.	.	.	.	.	.	.	.
=15	=15	=15	=15	=15	=15	=15	=15	=15	=15	=15	=15	=15	=15	=15	=15	=15
!	!	!	!	!	!	!	!	!	!	!	!	!	!	!	!LO:TX:a:t=t.	!
8AA/L	.	7 #	8AA/L	.	4c#X/	.	4e/	.	2r	.	2r	.	4gg\	.	8.ccc#X\L	.
8AA/	.	.	8AA/	.	.	.	.	.	.	.	.	.	.	.	.	.
.	.	.	.	.	.	.	.	.	.	.	.	.	.	.	32bb\LL	.
.	.	.	.	.	.	.	.	.	.	.	.	.	.	.	32aa\JJJ	.
8BB/	.	5	8BB/	.	4r	.	4r	.	.	.	.	.	(16ff#\LL	.	(32ddd\LLL	.
.	.	.	.	.	.	.	.	.	.	.	.	.	.	.	32ccc#\J)	.
.	.	.	.	.	.	.	.	.	.	.	.	.	16dd\)	.	16bb\JJ	.
8BB/J	.	6|	8BB/J	.	.	.	.	.	.	.	.	.	16cc#X\	.	16aa\LL	.
.	.	.	.	.	.	.	.	.	.	.	.	.	16b\JJ	.	16gg#X\JJ	.
!	!	!	!	!	!	!	!	!	!	!	!	!	!LO:LB:g=original	!	!	!
=16	=16	=16	=16	=16	=16	=16	=16	=16	=16	=16	=16	=16	=16	=16	=16	=16
!	!	!	!	!	!LO:TX:a:t=3.	!	!LO:TX:a:t=3.	!	!	!	!	!	!	!	!	!
8r	.	.	8r	.	2r	.	2r	.	2r	.	2r	.	16cc#X\LL	.	(16aa\LL	.
.	.	.	.	.	.	.	.	.	.	.	.	.	16dd\JJ	.	16ff#\JJ)	.
16C#X/LL	.	-5	16C#X/LL	.	.	.	.	.	.	.	.	.	4ee\	.	4ggn\	.
16BB/JJ	.	.	16BB/JJ	.	.	.	.	.	.	.	.	.	.	.	.	.
8C#/L	.	.	8C#/L	.	.	.	.	.	.	.	.	.	.	.	.	.
8AA/J	.	.	8AA/J	.	.	.	.	.	.	.	.	.	16dd\LL	.	16ff#\LL	.
.	.	.	.	.	.	.	.	.	.	.	.	.	16cc#X\JJ	.	16ee\JJ	.
=17	=17	=17	=17	=17	=17	=17	=17	=17	=17	=17	=17	=17	=17	=17	=17	=17
!	!	!	!	!	!	!	!	!	!	!	!	!	!LO:TX:t=P:problem= problem klamry łukowej	!	!LO:TX:t=P:problem= problem klamry łukowej	!
8D\L	.	.	8D\L	.	2r	.	2r	.	2r	.	2r	.	24dd\LL	.	24ff#\LL	.
.	.	.	.	.	.	.	.	.	.	.	.	.	24ee\	.	24gg\	.
.	.	.	.	.	.	.	.	.	.	.	.	.	24ff#\JJ	.	24aa\JJ	.
!	!	!	!	!	!	!	!	!	!	!	!	!	!LO:TX:t=P:problem= problem klamry łukowej	!	!LO:TX:t=P:problem= problem klamry łukowej	!
8G\	.	6	8G\	.	.	.	.	.	.	.	.	.	24gg\LL	.	24bb\LL	.
.	.	.	.	.	.	.	.	.	.	.	.	.	24ff#\	.	24aa\	.
.	.	.	.	.	.	.	.	.	.	.	.	.	24ee\JJ	.	24gg\JJ	.
8A\	.	4	8A\	.	.	.	.	.	.	.	.	.	8dd\L	.	8ff#\L	.
!	!	!	!	!	!	!	!	!	!	!	!	!	!LO:TX:a:t=t.	!	!LO:TX:a:t=t.	!
8AA/J	.	#	8AA/J	.	.	.	.	.	.	.	.	.	8cc#X\J	.	8ee\J	.
=18	=18	=18	=18	=18	=18	=18	=18	=18	=18	=18	=18	=18	=18	=18	=18	=18
4D\	.	.	4D\	.	2r	.	2r	.	2r	.	8r	.	4dd\	.	4dd\	.
!	!	!	!	!	!	!	!	!	!	!	!LO:TX:b:t=Solo.	!	!	!	!	!
.	.	.	.	.	.	.	.	.	.	.	8a\L	.	.	.	.	.
4r	.	.	4r	.	.	.	.	.	.	.	8b\	.	4r	.	4r	.
.	.	.	.	.	.	.	.	.	.	.	8cc#X\J	.	.	.	.	.
=19	=19	=19	=19	=19	=19	=19	=19	=19	=19	=19	=19	=19	=19	=19	=19	=19
!	!	!	!	!	!	!	!	!	!	!	!LO:TX:a:t=t.	!	!LO:TX:a:t=4.	!	!LO:TX:a:t=4.	!
.	.	.	.	.	.	.	.	.	.	.	8qqdd/	.	.	.	.	.
8r	.	.	8r	.	8r	.	8r	.	2r	.	2cc#X\	.	2r	.	2r	.
8G\L	.	4| 2	8G\L	.	8a/L	.	8ee\L	.	.	.	.	.	.	.	.	.
8F#\	.	5|	8F#\	.	8a/	.	8ff#\	.	.	.	.	.	.	.	.	.
8E\J	.	6|	8E\J	.	8g/J	.	8gg\J	.	.	.	.	.	.	.	.	.
=20	=20	=20	=20	=20	=20	=20	=20	=20	=20	=20	=20	=20	=20	=20	=20	=20
4D\	.	.	4D\	.	4a/	.	4ff#\	.	2r	.	16dd\LL	.	2r	.	2r	.
.	.	.	.	.	.	.	.	.	.	.	16a\JJ	.	.	.	.	.
!	!	!	!	!	!	!	!	!	!	!	!LO:TX:t=P:problem= problem klamry łukowej	!	!	!	!	!
.	.	.	.	.	.	.	.	.	.	.	24a\LL	.	.	.	.	.
.	.	.	.	.	.	.	.	.	.	.	24g\	.	.	.	.	.
.	.	.	.	.	.	.	.	.	.	.	24a\JJ	.	.	.	.	.
!	!	!	!	!	!	!	!	!	!	!	!LO:TX:t=P:problem= problem klamry łukowej	!	!	!	!	!
4r	.	.	4r	.	4r	.	4r	.	.	.	24b\LL	.	.	.	.	.
.	.	.	.	.	.	.	.	.	.	.	24a\	.	.	.	.	.
.	.	.	.	.	.	.	.	.	.	.	24b\JJ	.	.	.	.	.
!	!	!	!	!	!	!	!	!	!	!	!LO:TX:t=P:problem= problem klamry łukowej	!	!	!	!	!
.	.	.	.	.	.	.	.	.	.	.	24cc#X\LL	.	.	.	.	.
.	.	.	.	.	.	.	.	.	.	.	24b\	.	.	.	.	.
.	.	.	.	.	.	.	.	.	.	.	24cc#\JJ	.	.	.	.	.
!	!	!	!	!	!	!	!	!	!	!	!LO:LB:g=original	!	!	!	!	!
=21	=21	=21	=21	=21	=21	=21	=21	=21	=21	=21	=21	=21	=21	=21	=21	=21
!	!	!	!	!	!	!	!	!	!	!	!LO:TX:a:t=t.	!	!	!	!	!
.	.	.	.	.	.	.	.	.	.	.	8qqdd/	.	.	.	.	.
8r	.	.	8r	.	8r	.	8r	.	2r	.	2cc#X\	.	2r	.	2r	.
8G\L	.	4| 2	8G\L	.	8a/L	.	8ee\L	.	.	.	.	.	.	.	.	.
8F#\	.	5|	8F#\	.	8a/	.	8ff#\	.	.	.	.	.	.	.	.	.
8E\J	.	6|	8E\J	.	8g/J	.	8gg\J	.	.	.	.	.	.	.	.	.
=22	=22	=22	=22	=22	=22	=22	=22	=22	=22	=22	=22	=22	=22	=22	=22	=22
*	*	*	*	*	*	*	*	*	*	*	*	*	*	*	*custos:aa	*
!	!	!	!	!	!	!	!	!	!	!	!LO:TX:t=P:problem= problem klamry łukowej	!	!	!	!	!
8D\L	.	.	8D\L	.	8a/L	.	8ff#\L	.	8d/L	.	24dd\LL	.	2r	.	2r	.
.	.	.	.	.	.	.	.	.	.	.	24ee\	.	.	.	.	.
.	.	.	.	.	.	.	.	.	.	.	24ff#\JJ	.	.	.	.	.
!	!	!	!	!	!	!	!	!	!	!	!LO:TX:t=P:problem= problem klamry łukowej	!	!	!	!	!
8B\	.	6	8B\	.	8g/	.	16dd\L	.	8g\J	.	24gg\LL	.	.	.	.	.
.	.	.	.	.	.	.	.	.	.	.	24ff#\	.	.	.	.	.
.	.	.	.	.	.	.	16ee\JJ	.	.	.	.	.	.	.	.	.
.	.	.	.	.	.	.	.	.	.	.	24ee\JJ	.	.	.	.	.
!	!	!	!	!	!	!	!LO:TX:a:t=t.	!	!	!	!LO:TX:a:t=t.	!	!	!	!	!
.	.	.	.	.	.	.	8qqff#/	.	.	.	8qqdd/	.	.	.	.	.
8A\	.	#	8A\	.	8e/	.	8.ee\L	.	4a\	.	4cc#X\	.	.	.	.	.
8AA/J	.	.	8AA/J	.	8a/J	.	.	.	.	.	.	.	.	.	.	.
.	.	.	.	.	.	.	16dd\Jk	.	.	.	.	.	.	.	.	.
!	!	!	!	!	!LO:LB:g=original	!	!	!	!	!	!	!	!	!	!	!
!	!	!	!	!	!	!	!	!	!	!	!	!	!	!	!LO:LB:g=original	!
=23	=23	=23	=23	=23	=23	=23	=23	=23	=23	=23	=23	=23	=23	=23	=23	=23
!	!	!	!	!	!	!	!	!LO:DY:t=forte	!	!	!	!	!	!	!	!
!	!LO:DY:t=for&colon;	!	!	!LO:DY:t=for&colon;	!	!LO:DY:t=for&colon;	!	!	!	!	!	!	!	!	!	!
8D/L	f	.	8D/L	f	8f#/L	f	(16d/LL	f	8d/L	.	8dd\L	.	[2ff#\	.	[2aa\	.
.	.	.	.	.	.	.	16f#/)	.	.	.	.	.	.	.	.	.
8D/	.	.	8D/	.	(16d/L	.	(16f#/	.	8d/	.	8a\	.	.	.	.	.
.	.	.	.	.	16f#/JJ)	.	16a/JJ)	.	.	.	.	.	.	.	.	.
8D/	.	.	8D/	.	(16f#/LL	.	(16a\LL	.	8d/	.	8a\	.	.	.	.	.
.	.	.	.	.	16a/)	.	16dd\)	.	.	.	.	.	.	.	.	.
8D/J	.	.	8D/J	.	(16a/	.	(16dd\	.	8d/J	.	8a\J	.	.	.	.	.
.	.	.	.	.	16dd/JJ)	.	16ff#\JJ)	.	.	.	.	.	.	.	.	.
=24	=24	=24	=24	=24	=24	=24	=24	=24	=24	=24	=24	=24	=24	=24	=24	=24
!	!	!	!	!	!	!	!	!LO:DY:t=piano&colon;	!	!	!	!	!	!	!	!
!	!	!	!	!	!	!LO:DY:t=pia&colon;	!	!	!	!	!	!	!	!	!	!
!	!LO:DY:t=pia&colon;	!	!	!LO:DY:t=pia&colon;	!	!	!	!	!	!	!	!	!	!LO:DY:t=pia	!	!LO:DY:t=pia
8D/L	p	.	8D/L	p	(16ff#\LL	p	(16aa\LL	p	4d/	.	4a\	.	2ff#\]	p	2aa\]	p
.	.	.	.	.	16dd\)	.	16ff#\)	.	.	.	.	.	.	.	.	.
8D/	.	.	8D/	.	(16dd\	.	(16ff#\	.	.	.	.	.	.	.	.	.
.	.	.	.	.	16a\JJ)	.	16dd\JJ)	.	.	.	.	.	.	.	.	.
8D/	.	.	8D/	.	(16a/LL	.	(16dd\LL	.	4r	.	4r	.	.	.	.	.
.	.	.	.	.	16f#/)	.	16a\)	.	.	.	.	.	.	.	.	.
8D/J	.	.	8D/J	.	(16f#/	.	(16a\	.	.	.	.	.	.	.	.	.
.	.	.	.	.	16d/JJ)	.	16f#\JJ)	.	.	.	.	.	.	.	.	.
!LO:LB:g=original	!	!	!	!	!	!	!	!	!LO:LB:g=original	!	!	!	!	!	!	!
=25	=25	=25	=25	=25	=25	=25	=25	=25	=25	=25	=25	=25	=25	=25	=25	=25
!	!	!	!	!	!	!	!	!LO:DY:t=for&colon;	!	!	!	!	!	!	!	!
!	!	!	!	!	!	!LO:DY:t=for&colon;	!	!	!	!	!	!	!	!	!	!
!	!LO:DY:t=for	!	!	!LO:DY:t=for&colon;	!	!	!	!	!	!	!	!	!	!LO:DY:t=for	!	!LO:DY:t=for
8D/L	f	6 4	8D/L	f	(16B/LL	f	(16d/LL	f	8r	.	8r	.	[2gg\	f	[2bb\	f
.	.	.	.	.	16d/)	.	16g/)	.	.	.	.	.	.	.	.	.
8D/	.	.	8D/	.	(16d/	.	(16g/	.	8g\L	.	8b\L	.	.	.	.	.
.	.	.	.	.	16g/JJ)	.	16b/JJ)	.	.	.	.	.	.	.	.	.
8D/	.	.	8D/	.	(16g/LL	.	(16b\LL	.	8g\	.	8b\	.	.	.	.	.
.	.	.	.	.	16b/)	.	16dd\)	.	.	.	.	.	.	.	.	.
8D/J	.	.	8D/J	.	(16b/	.	(16dd\	.	8g\J	.	8b\J	.	.	.	.	.
.	.	.	.	.	16dd/JJ)	.	16gg\JJ)	.	.	.	.	.	.	.	.	.
!	!	!	!	!	!	!	!LO:LB:g=original	!	!	!	!	!	!	!	!	!
=26	=26	=26	=26	=26	=26	=26	=26	=26	=26	=26	=26	=26	=26	=26	=26	=26
!	!	!	!	!	!	!	!	!	!LO:TX:a:t=t.	!	!LO:TX:a:t=t.	!	!	!	!	!
!	!	!	!	!	!	!	!	!LO:DY:t=pia&colon;	!	!	!	!	!	!	!	!
!	!	!	!	!	!	!LO:DY:t=pia&colon;	!	!	!	!	!	!	!	!	!	!
!	!	!	!	!	!	!	!	!	!	!	!	!	!	!LO:DY:t=pia	!	!LO:DY:t=pia
!	!LO:DY:t=pia&colon;	!	!	!LO:DY:t=pia&colon;	!	!	!	!	!	!LO:DY:t=pia&colon;	!	!LO:DY:t=pia&colon;	!	!	!	!
8D/L	p	6 4	8D/L	p	(16gg\LL	p	(16bb\LL	p	2g\	p	2b\	p	2gg\]	p	2bb\]	p
.	.	.	.	.	16dd\)	.	16gg\)	.	.	.	.	.	.	.	.	.
8D/	.	.	8D/	.	(16dd\	.	(16gg\	.	.	.	.	.	.	.	.	.
.	.	.	.	.	16b\JJ)	.	16dd\JJ)	.	.	.	.	.	.	.	.	.
8D/	.	.	8D/	.	(16b/LL	.	(16dd\LL	.	.	.	.	.	.	.	.	.
.	.	.	.	.	16g/)	.	16b\)	.	.	.	.	.	.	.	.	.
8D/J	.	.	8D/J	.	(16g/	.	(16b\	.	.	.	.	.	.	.	.	.
.	.	.	.	.	16d/JJ)	.	16g\JJ)	.	.	.	.	.	.	.	.	.
=27	=27	=27	=27	=27	=27	=27	=27	=27	=27	=27	=27	=27	=27	=27	=27	=27
!	!	!	!	!	!	!	!	!LO:DY:t=for&colon;	!	!	!	!	!	!	!	!
!	!	!	!	!	!	!LO:DY:t=for&colon;	!	!	!	!	!	!	!	!	!	!
!	!LO:DY:t=for	!	!	!LO:DY:t=for&colon;	!	!	!	!	!	!	!	!	!	!LO:DY:t=for&colon;	!	!LO:DY:t=for
8Cn/L	f	4 2	8Cn/L	f	(16A/LL	f	(16d/LL	f	8r	.	8r	.	[2ff#\	f	[2aa\	f
.	.	.	.	.	16d/)	.	16f#/)	.	.	.	.	.	.	.	.	.
!	!	!	!	!	!	!	!	!	!	!LO:DY:t=for&colon;	!	!LO:DY:t=for	!	!	!	!
8C/	.	.	8C/	.	(16d/	.	(16f#/	.	8d/L	f	8a\L	f	.	.	.	.
.	.	.	.	.	16f#/JJ)	.	16a/JJ)	.	.	.	.	.	.	.	.	.
8C/	.	.	8C/	.	(16f#/LL	.	(16a\LL	.	8d/	.	8a\	.	.	.	.	.
.	.	.	.	.	16a/)	.	16dd\)	.	.	.	.	.	.	.	.	.
8C/J	.	.	8C/J	.	(16a/	.	(16dd\	.	8d/J	.	8a\J	.	.	.	.	.
.	.	.	.	.	16dd/JJ)	.	16ff#\JJ)	.	.	.	.	.	.	.	.	.
=28	=28	=28	=28	=28	=28	=28	=28	=28	=28	=28	=28	=28	=28	=28	=28	=28
!	!	!	!	!	!	!	!	!	!	!	!LO:TX:a:t=t.	!	!	!	!	!
!	!	!	!	!	!	!	!	!LO:DY:t=pia&colon;	!	!	!	!	!	!	!	!
!	!	!	!	!	!	!LO:DY:t=pia&colon;	!	!	!	!	!	!	!	!	!	!
!	!	!	!	!	!	!	!	!	!	!	!	!	!	!LO:DY:t=pia&colon;	!	!LO:DY:t=pia
!	!LO:DY:t=pia&colon;	!	!	!LO:DY:t=pia&colon;	!	!	!	!	!	!LO:DY:t=pia&colon;	!	!LO:DY:t=pia&colon;	!	!	!	!
8C/L	p	4 2	8C/L	p	(16ff#\LL	p	(16aa\LL	p	2d/	p	2a\	p	2ff#\]	p	2aa\]	p
.	.	.	.	.	16dd\)	.	16ff#\)	.	.	.	.	.	.	.	.	.
8C/	.	.	8C/	.	(16dd\	.	(16ff#\	.	.	.	.	.	.	.	.	.
.	.	.	.	.	16a\JJ)	.	16dd\JJ)	.	.	.	.	.	.	.	.	.
8C/	.	.	8C/	.	(16a/LL	.	(16dd\LL	.	.	.	.	.	.	.	.	.
.	.	.	.	.	16f#/)	.	16a\)	.	.	.	.	.	.	.	.	.
8C/J	.	.	8C/J	.	(16f#/	.	(16a\	.	.	.	.	.	.	.	.	.
.	.	.	.	.	16d/JJ)	.	16f#\JJ)	.	.	.	.	.	.	.	.	.
!	!	!	!LO:LB:g=original	!	!	!	!	!	!	!	!	!	!	!	!	!
=29	=29	=29	=29	=29	=29	=29	=29	=29	=29	=29	=29	=29	=29	=29	=29	=29
!	!	!	!	!	!	!	!	!LO:DY:t=for&colon;	!	!	!	!	!	!	!	!
!	!LO:DY:t=for	!	!	!LO:DY:t=for&colon;	!	!	!	!	!	!	!	!	!	!LO:DY:t=for&colon;	!	!LO:DY:t=for
8BB/L	f	7 #	8BB/L	f	8r	.	(16d#X/LL	f	8r	.	8r	.	[2ff#\	f	[2aa\	f
.	.	.	.	.	.	.	16f#/)	.	.	.	.	.	.	.	.	.
!	!	!	!	!	!	!LO:DY:t=for&colon;	!	!	!	!	!	!	!	!	!	!
!	!	!	!	!	!	!	!	!	!	!LO:DY:t=for	!	!LO:DY:t=for&colon;	!	!	!	!
8BB/	.	.	8BB/	.	(16d#X/LL	f	(16f#/	.	16B/LL	f	16B/LL	f	.	.	.	.
.	.	.	.	.	16f#/JJ)	.	16a/JJ)	.	16B/JJ	.	16B/JJ	.	.	.	.	.
8BB/	.	.	8BB/	.	(16f#/LL	.	(16a\LL	.	8B/L	.	8B/L	.	.	.	.	.
.	.	.	.	.	16a/)	.	16dd#X\)	.	.	.	.	.	.	.	.	.
8BB/J	.	.	8BB/J	.	(16a/	.	(16dd#\	.	8B/J	.	8B/J	.	.	.	.	.
.	.	.	.	.	16dd#X/JJ)	.	16ff#\JJ)	.	.	.	.	.	.	.	.	.
=30	=30	=30	=30	=30	=30	=30	=30	=30	=30	=30	=30	=30	=30	=30	=30	=30
!	!	!	!	!	!	!	!	!LO:DY:t=pia&colon;	!	!	!	!	!	!	!	!
!	!	!	!	!	!	!LO:DY:t=pia&colon;	!	!	!	!	!	!	!	!	!	!
!	!LO:DY:t=pia&colon;	!	!	!LO:DY:t=pia&colon;	!	!	!	!	!	!	!	!	!	!LO:DY:t=pia&colon;	!	!LO:DY:t=pia
8BB/L	p	7 #	8BB/L	p	(16ff#\LL	p	(16aa\LL	p	4B/	.	4B/	.	2ff#\]	p	2aa\]	p
.	.	.	.	.	16dd#X\)	.	16ff#\)	.	.	.	.	.	.	.	.	.
8BB/	.	.	8BB/	.	(16dd#\	.	(16ff#\	.	.	.	.	.	.	.	.	.
.	.	.	.	.	16a\JJ)	.	16dd#X\JJ)	.	.	.	.	.	.	.	.	.
8BB/	.	.	8BB/	.	(16a/LL	.	(16dd#\LL	.	4r	.	4r	.	.	.	.	.
.	.	.	.	.	16f#/)	.	16a\)	.	.	.	.	.	.	.	.	.
8BB/J	.	.	8BB/J	.	(16f#/	.	(16a\	.	.	.	.	.	.	.	.	.
.	.	.	.	.	16d#X/JJ)	.	16f#\JJ)	.	.	.	.	.	.	.	.	.
!	!	!	!	!	!LO:LB:g=original	!	!	!	!	!	!	!	!	!	!	!
=31	=31	=31	=31	=31	=31	=31	=31	=31	=31	=31	=31	=31	=31	=31	=31	=31
!	!	!	!	!	!	!	!	!LO:DY:t=for&colon;	!	!	!	!	!	!	!	!
!	!	!	!	!	!	!LO:DY:t=for&colon;	!	!	!	!	!	!	!	!	!	!
!	!LO:DY:t=for&colon;	!	!	!LO:DY:t=for&colon;	!	!	!	!	!	!	!	!	!	!LO:DY:t=for&colon;	!	!LO:DY:t=for&colon;
8AA#X/L	f	7 5	8AA#X/L	f	(16e/LL	f	(16g/LL	f	[2g\	.	[2cc#X\	.	[2ee\	f	[2gg\	f
.	.	.	.	.	16g/)	.	16cc#X/)	.	.	.	.	.	.	.	.	.
8AA#/	.	.	8AA#/	.	(16g/	.	(16cc#/	.	.	.	.	.	.	.	.	.
.	.	.	.	.	16cc#X/JJ)	.	16ee/JJ)	.	.	.	.	.	.	.	.	.
8AA#/	.	.	8AA#/	.	(16cc#\LL	.	(16ee\LL	.	.	.	.	.	.	.	.	.
.	.	.	.	.	16ee\)	.	16gg\)	.	.	.	.	.	.	.	.	.
8AA#/J	.	.	8AA#/J	.	(16ee\	.	(16gg\	.	.	.	.	.	.	.	.	.
.	.	.	.	.	16gg\JJ)	.	16ccc#X\JJ)	.	.	.	.	.	.	.	.	.
=32	=32	=32	=32	=32	=32	=32	=32	=32	=32	=32	=32	=32	=32	=32	=32	=32
!	!	!	!	!	!	!	!	!LO:DY:t=pia&colon;	!	!	!	!	!	!	!	!
!	!	!	!	!	!	!LO:DY:t=pia&colon;	!	!	!	!	!	!	!	!	!	!
!	!	!	!	!	!	!	!	!	!	!	!	!	!	!LO:DY:t=pia&colon;	!	!LO:DY:t=pia&colon;
!	!LO:DY:t=pia&colon;	!	!	!LO:DY:t=pia&colon;	!	!	!	!	!	!LO:DY:t=pia&colon;	!	!LO:DY:t=pia&colon;	!	!	!	!
8AA/L	p	7 5	8AA/L	p	(16gg\LL	p	(16ccc#X\LL	p	2g\]	p	2cc#\]	p	2ee\]	p	2gg\]	p
.	.	.	.	.	16ee\)	.	16gg\)	.	.	.	.	.	.	.	.	.
8AA/	.	.	8AA/	.	(16ee\	.	(16gg\	.	.	.	.	.	.	.	.	.
.	.	.	.	.	16cc#X\JJ)	.	16ee\JJ)	.	.	.	.	.	.	.	.	.
8AA/	.	.	8AA/	.	(16cc#\LL	.	(16ee\LL	.	.	.	.	.	.	.	.	.
.	.	.	.	.	16g\)	.	16cc#X\)	.	.	.	.	.	.	.	.	.
8AA/J	.	.	8AA/J	.	(16g\	.	(16cc#\	.	.	.	.	.	.	.	.	.
.	.	.	.	.	16e\JJ)	.	16g\JJ)	.	.	.	.	.	.	.	.	.
!	!	!	!	!	!	!	!	!	!	!	!LO:LB:g=original	!	!	!	!	!
=33	=33	=33	=33	=33	=33	=33	=33	=33	=33	=33	=33	=33	=33	=33	=33	=33
!	!	!	!	!	!	!	!	!	!LO:TX:a:t=P:problem=mixed beam	!	!	!	!	!	!	!
!	!	!	!	!	!	!	!	!LO:DY:t=for&colon;	!	!	!	!	!	!	!	!
!	!	!	!	!	!	!LO:DY:t=for&colon;	!	!	!	!	!	!	!	!	!	!
!	!	!	!	!	!	!	!	!	!	!	!	!	!	!LO:DY:t=for&colon;	!	!LO:DY:t=for
!	!LO:DY:t=for	!	!	!LO:DY:t=for&colon;	!	!	!	!	!	!LO:DY:t=for	!	!LO:DY:t=for	!	!	!	!
8BB/L	f	#	8BB/L	f	8c#X`/L	f	8f#`/L	f	8b\L	f	8b\L	f	8.dd#X\L	f	8.ff#\L	f
8BB`/	.	.	8BB`/	.	8c#`/	.	8f#`/	.	16.B/L	.	16.b\L	.	.	.	.	.
.	.	.	.	.	.	.	.	.	.	.	.	.	16ee\Jk	.	16gg\Jk	.
.	.	.	.	.	.	.	.	.	32B/JJ	.	32b\JJk	.	.	.	.	.
8BB`/	.	.	8BB`/	.	8c#`/	.	8f#`/	.	8B/L	.	8b\L	.	16.dd#\LL	.	16.ff#\LL	.
.	.	.	.	.	.	.	.	.	.	.	.	.	32ee\K	.	32gg\JJk	.
8BB`/J	.	.	8BB`/J	.	8c#`/J	.	8f#`/J	.	8B/J	.	8b\J	.	16.dd#\	.	16.ff#\LL	.
.	.	.	.	.	.	.	.	.	.	.	.	.	32ee\JJk	.	32gg\JJk	.
=34	=34	=34	=34	=34	=34	=34	=34	=34	=34	=34	=34	=34	=34	=34	=34	=34
.	.	.	.	.	.	.	.	.	.	.	.	.	8qqee/	.	8qqgg/	.
4BB/	.	#	4BB/	.	4d/	.	4f#/	.	4B/	.	4b\	.	4dd#X\	.	4ff#\	.
4r	.	.	4r	.	4r	.	4r	.	4r	.	4r	.	4r	.	8r	.
.	.	.	.	.	.	.	.	.	.	.	.	.	.	.	16r	.
!	!	!	!	!	!	!	!	!	!	!	!	!	!	!	!LO:TX:b:t=solo.	!
.	.	.	.	.	.	.	.	.	.	.	.	.	.	.	16cc\	.
!	!	!	!	!	!	!	!LO:LB:g=original	!	!	!	!	!	!	!	!	!
=35	=35	=35	=35	=35	=35	=35	=35	=35	=35	=35	=35	=35	=35	=35	=35	=35
!LO:TX:a:t=4.	!	!	!LO:TX:a:t=4.	!	!LO:TX:a:t=1.	!	!LO:TX:a:t=1.	!	!LO:TX:a:t=1.	!	!LO:TX:a:t=1.	!	!	!	!	!
2r	.	.	2r	.	2r	.	2r	.	2r	.	2r	.	8r	.	(16cc\LL	.
.	.	.	.	.	.	.	.	.	.	.	.	.	.	.	16b\)	.
.	.	.	.	.	.	.	.	.	.	.	.	.	16r	.	(16b\	.
!	!	!	!	!	!	!	!	!	!	!	!	!	!LO:TX:b:t=solo.	!	!	!
.	.	.	.	.	.	.	.	.	.	.	.	.	16cc\	.	16ee\JJ)	.
!	!	!	!	!	!	!	!	!	!	!	!	!	!LO:LB:g=original	!	!	!
.	.	.	.	.	.	.	.	.	.	.	.	.	(16cc\LL	.	(16ee\LL	.
.	.	.	.	.	.	.	.	.	.	.	.	.	16b\)	.	16dd#X\)	.
.	.	.	.	.	.	.	.	.	.	.	.	.	(16b\	.	(16dd#\	.
.	.	.	.	.	.	.	.	.	.	.	.	.	16ff#\JJ)	.	16aa\JJ)	.
=36	=36	=36	=36	=36	=36	=36	=36	=36	=36	=36	=36	=36	=36	=36	=36	=36
!	!	!	!	!	!	!LO:DY:t=p&colon;	!	!	!	!	!	!	!	!	!	!
2r	.	.	2r	.	8r	p	8r	.	8r	.	8r	.	8ff#\	.	8aa\	.
!	!	!	!	!	!	!	!	!LO:DY:t=pia	!	!	!	!	!	!	!	!
!	!	!	!	!	!	!	!	!	!	!LO:DY:t=pia&colon;	!	!LO:DY:t=pia&colon;	!	!	!	!
.	.	.	.	.	8B/L	.	8B/L	p	8B/L	p	8B/L	p	4ee\	.	4gg\	.
.	.	.	.	.	8B/	.	8B/	.	8B/	.	8B/	.	.	.	.	.
.	.	.	.	.	8B/J	.	8B/J	.	8B/J	.	8B/J	.	8dd#X\	.	8ff#\	.
=37	=37	=37	=37	=37	=37	=37	=37	=37	=37	=37	=37	=37	=37	=37	=37	=37
2r	.	.	2r	.	4B/	.	4B/	.	4B/	.	4B/	.	8r	.	(16ee\LL	.
.	.	.	.	.	.	.	.	.	.	.	.	.	.	.	16dd#X\)	.
.	.	.	.	.	.	.	.	.	.	.	.	.	16r	.	(16dd#\	.
.	.	.	.	.	.	.	.	.	.	.	.	.	16ee\	.	16gg\JJ)	.
.	.	.	.	.	4r	.	4r	.	4r	.	4r	.	(16ee\LL	.	(16gg\LL	.
.	.	.	.	.	.	.	.	.	.	.	.	.	16dd#X\)	.	16ff#\)	.
.	.	.	.	.	.	.	.	.	.	.	.	.	(16dd#\	.	(16ff#\	.
.	.	.	.	.	.	.	.	.	.	.	.	.	16aa\JJ)	.	16ccc\JJ)	.
!	!	!	!	!	!	!	!	!	!LO:LB:g=original	!	!	!	!	!	!	!
=38	=38	=38	=38	=38	=38	=38	=38	=38	=38	=38	=38	=38	=38	=38	=38	=38
2r	.	.	2r	.	8r	.	8r	.	8r	.	8r	.	8aa\	.	8ccc\	.
.	.	.	.	.	8B/L	.	8B/L	.	8B/L	.	8B/L	.	4gg\	.	4bb\	.
.	.	.	.	.	8B/	.	8B/	.	8B/	.	8B/	.	.	.	.	.
.	.	.	.	.	8B/J	.	8B/J	.	8B/J	.	8B/J	.	8ff#\	.	8aa\	.
!	!	!	!	!	!	!	!	!	!	!	!	!	!	!	!LO:LB:g=original	!
=39	=39	=39	=39	=39	=39	=39	=39	=39	=39	=39	=39	=39	=39	=39	=39	=39
!	!LO:DY:t=pia&colon;	!	!	!	!	!	!	!	!LO:TX:a:t=3.	!	!LO:TX:a:t=3.	!	!	!	!LO:TX:t=P:problem= problem klamry łukowej	!
8E\L	p	.	8E\L	p	8e/L	.	8e/L	.	2r	.	2r	.	8ee\	.	24gg\LL	.
.	.	.	.	.	.	.	.	.	.	.	.	.	.	.	24ff#\	.
.	.	.	.	.	.	.	.	.	.	.	.	.	.	.	24ee\JJ	.
!	!	!	!	!	!	!	!	!	!	!	!	!	!	!	!LO:TX:t=P:problem= problem klamry łukowej	!
8A\J	.	.	8A\J	.	8a/	.	8a/	.	.	.	.	.	4ee\	.	24ccc\LL	.
.	.	.	.	.	.	.	.	.	.	.	.	.	.	.	24bb\	.
.	.	.	.	.	.	.	.	.	.	.	.	.	.	.	24aa\JJ	.
!	!	!	!	!	!	!	!	!	!	!	!	!	!	!	!LO:TX:a:t=t.	!
.	.	.	.	.	.	.	.	.	.	.	.	.	.	.	8qqgg/	.
8B\L	.	4	8B\L	.	8b/	.	8b/	.	.	.	.	.	.	.	4ff#\	.
!	!	!	!	!	!	!	!	!	!	!	!	!	!LO:TX:a:t=t.	!	!	!
8BB/J	.	#	8BB/J	.	8B/J	.	8B/J	.	.	.	.	.	8dd#X\	.	.	.
=40	=40	=40	=40	=40	=40	=40	=40	=40	=40	=40	=40	=40	=40	=40	=40	=40
!	!	!	!	!	!	!	!	!	!	!	!	!	!	!	!LO:TX:t=P:problem= problem klamry łukowej	!
8C/L	.	.	8C/L	.	8c/L	.	8c/L	.	2r	.	2r	.	8ee\	.	24ee\LL	.
.	.	.	.	.	.	.	.	.	.	.	.	.	.	.	24ff#\	.
.	.	.	.	.	.	.	.	.	.	.	.	.	.	.	24gg\JJ	.
!	!	!	!	!	!	!	!	!	!	!	!	!	!	!	!LO:TX:t=P:problem= problem klamry łukowej	!
8AA/J	.	.	8AA/	.	8A/	.	8A/	.	.	.	.	.	4ee\	.	24aa\LL	.
.	.	.	.	.	.	.	.	.	.	.	.	.	.	.	24gg\	.
.	.	.	.	.	.	.	.	.	.	.	.	.	.	.	24ff#\JJ	.
!	!	!	!	!	!	!	!	!	!	!	!	!	!	!	!LO:TX:a:t=t.	!
.	.	.	.	.	.	.	.	.	.	.	.	.	.	.	8qqgg/	.
8BB/L	.	4	8BB/	.	8B/	.	8B/	.	.	.	.	.	.	.	4ff#\	.
!	!	!	!	!	!	!	!	!	!	!	!	!	!LO:TX:a:t=t.	!	!	!
8BB/J	.	#	8BB/J	.	8B/J	.	8B/J	.	.	.	.	.	8dd#X\	.	.	.
!LO:LB:g=original	!	!	!	!	!	!	!	!	!	!	!	!	!	!	!	!
=41	=41	=41	=41	=41	=41	=41	=41	=41	=41	=41	=41	=41	=41	=41	=41	=41
!	!	!	!	!	!	!	!	!	!	!	!	!	!	!	!LO:TX:t=P:problem= problem klamry łukowej	!
8E\L	.	.	8E\L	.	8e/L	.	8e/L	.	2r	.	2r	.	8ee\	.	24gg\LL	.
.	.	.	.	.	.	.	.	.	.	.	.	.	.	.	24ff#\	.
.	.	.	.	.	.	.	.	.	.	.	.	.	.	.	24ee\JJ	.
!	!	!	!	!	!	!	!	!	!	!	!	!	!	!	!LO:TX:t=P:problem= problem klamry łukowej	!
8A\	.	.	8A\	.	8a/	.	8a/J	.	.	.	.	.	4ee\	.	24ccc\LL	.
.	.	.	.	.	.	.	.	.	.	.	.	.	.	.	24bb\	.
.	.	.	.	.	.	.	.	.	.	.	.	.	.	.	24aa\JJ	.
!	!	!	!	!	!	!	!	!	!	!	!	!	!	!	!LO:TX:a:t=t.	!
.	.	.	.	.	.	.	.	.	.	.	.	.	.	.	8qqgg/	.
8B\	.	4	8B\	.	8b/	.	8b/L	.	.	.	.	.	.	.	4ff#\	.
!	!	!	!	!	!	!	!	!	!	!	!	!	!LO:TX:a:t=t.	!	!	!
8BB/J	.	#	8BB/J	.	8B/J	.	8B/J	.	.	.	.	.	8dd#X\	.	.	.
=42	=42	=42	=42	=42	=42	=42	=42	=42	=42	=42	=42	=42	=42	=42	=42	=42
!	!	!	!	!	!	!	!	!LO:DY:t=forte.	!	!	!	!	!	!	!	!
!	!LO:DY:t=for&colon;	!	!	!LO:DY:t=for&colon;	!	!LO:DY:t=for&colon;	!	!	!	!	!	!	!	!	!	!
8E\L	f	.	8E\L	f	8e/L	f	(16e/LL	f	8r	.	8r	.	8ee\L	.	8ee\L	.
.	.	.	.	.	.	.	16g/)	.	.	.	.	.	.	.	.	.
!	!	!	!	!	!	!	!	!	!	!LO:DY:t=for&colon;	!	!LO:DY:t=for	!	!	!	!
8E\	.	.	8E\	.	(16e/L	.	(16g/	.	8B/L	f	8B/L	f	8gg\	.	8bb\	.
.	.	.	.	.	16g/JJ)	.	16b/JJ)	.	.	.	.	.	.	.	.	.
8E\	.	.	8E\	.	(16b/LL	.	(16ee\LL	.	8B/	.	8B/	.	8gg\	.	8bb\	.
.	.	.	.	.	16g/)	.	16b\)	.	.	.	.	.	.	.	.	.
8E\J	.	.	8E\J	.	(16g/	.	(16b\	.	8B/J	.	8B/J	.	8gg\J	.	8bb\J	.
.	.	.	.	.	16e/JJ)	.	16g\JJ)	.	.	.	.	.	.	.	.	.
=43	=43	=43	=43	=43	=43	=43	=43	=43	=43	=43	=43	=43	=43	=43	=43	=43
!	!	!	!	!	!	!	!	!LO:DY:t=pia&colon;	!	!	!	!	!	!	!	!
!	!	!	!	!	!	!	!	!	!	!	!	!	!	!	!	!LO:DY:t=pia&colon;
!	!LO:DY:t=pia&colon;	!	!	!LO:DY:t=pia&colon;	!	!	!	!	!	!	!	!	!	!LO:DY:t=pia&colon;	!	!
8D/L	p	4| 2	8D/L	p	8r	.	(16e/LL	p	4B/	.	4B/	.	2gg#X\	p	2bb\	p
.	.	.	.	.	.	.	16g#X/)	.	.	.	.	.	.	.	.	.
!	!	!	!	!	!	!LO:DY:t=pia&colon;	!	!	!	!	!	!	!	!	!	!
8D/	.	.	8D/	.	(16e/LL	p	(16g#/	.	.	.	.	.	.	.	.	.
.	.	.	.	.	16g#X/JJ)	.	16b/JJ)	.	.	.	.	.	.	.	.	.
8D/	.	.	8D/	.	(16b/LL	.	(16ee\LL	.	4r	.	4r	.	.	.	.	.
.	.	.	.	.	16g#X/)	.	16b\)	.	.	.	.	.	.	.	.	.
8D/J	.	.	8D/J	.	(16g#/	.	(16b\	.	.	.	.	.	.	.	.	.
.	.	.	.	.	16e/JJ)	.	16g#X\JJ)	.	.	.	.	.	.	.	.	.
!	!	!	!	!	!LO:LB:g=original	!	!	!	!	!	!	!	!	!	!	!
=44	=44	=44	=44	=44	=44	=44	=44	=44	=44	=44	=44	=44	=44	=44	=44	=44
!	!	!	!	!	!	!	!	!	!LO:TX:a:t=3.	!	!LO:TX:a:t=3.	!	!	!	!	!
!	!	!	!	!	!	!	!	!LO:DY:t=for&colon;	!	!	!	!	!	!	!	!
!	!LO:DY:t=for&colon;	!	!	!LO:DY:t=for&colon;	!	!	!	!	!	!	!	!	!	!LO:DY:t=for&colon;	!	!LO:DY:t=for
8C/L	f	6	8C/L	f	8r	.	(16e/LL	f	2r	.	2r	.	2aa\	f	2ccc\	f
.	.	.	.	.	.	.	16a/)	.	.	.	.	.	.	.	.	.
!	!	!	!	!	!	!LO:DY:t=for&colon;	!	!	!	!	!	!	!	!	!	!
8C/	.	.	8C/	.	(16e/LL	f	(16a/	.	.	.	.	.	.	.	.	.
.	.	.	.	.	16a/JJ)	.	16cc/JJ)	.	.	.	.	.	.	.	.	.
8C/	.	.	8C/	.	(16cc/LL	.	(16ee\LL	.	.	.	.	.	.	.	.	.
.	.	.	.	.	16a/)	.	16cc\)	.	.	.	.	.	.	.	.	.
8C/J	.	.	8C/J	.	(16a/	.	(16cc\	.	.	.	.	.	.	.	.	.
.	.	.	.	.	16e/JJ)	.	16a\JJ)	.	.	.	.	.	.	.	.	.
!	!	!	!	!	!	!	!LO:LB:g=original	!	!	!	!	!	!	!	!	!
=45	=45	=45	=45	=45	=45	=45	=45	=45	=45	=45	=45	=45	=45	=45	=45	=45
!	!	!	!	!	!	!	!	!LO:DY:t=pia&colon;	!	!	!	!	!	!	!	!
!	!LO:DY:t=pia&colon;	!	!	!LO:DY:t=pia&colon;	!	!	!	!	!	!	!	!	!	!LO:DY:t=pia&colon;	!	!LO:DY:t=pia
8GG#X/L	p	6 5	8GG#X/L	p	8r	.	(16d/LL	p	2r	.	2r	.	2bb\	p	2ddd\	p
.	.	.	.	.	.	.	16g#X/)	.	.	.	.	.	.	.	.	.
!	!	!	!	!	!	!LO:DY:t=pia&colon;	!	!	!	!	!	!	!	!	!	!
8GG#/	.	.	8GG#/	.	(16d/LL	p	(16g#/	.	.	.	.	.	.	.	.	.
.	.	.	.	.	16g#X/JJ)	.	16b/JJ)	.	.	.	.	.	.	.	.	.
8GG#/	.	.	8GG#/	.	(16b/LL	.	(16cc\LL	.	.	.	.	.	.	.	.	.
.	.	.	.	.	16g#X/)	.	16b\)	.	.	.	.	.	.	.	.	.
8GG#/J	.	.	8GG#/J	.	(16g#/	.	(16b\	.	.	.	.	.	.	.	.	.
.	.	.	.	.	16d/JJ)	.	16g#X\JJ)	.	.	.	.	.	.	.	.	.
=46	=46	=46	=46	=46	=46	=46	=46	=46	=46	=46	=46	=46	=46	=46	=46	=46
!	!	!	!	!	!	!	!	!LO:DY:t=for&colon;	!	!	!	!	!	!	!	!
!	!	!	!	!	!	!LO:DY:t=for&colon;	!	!	!	!	!	!	!	!	!	!
!	!LO:DY:t=for&colon;	!	!	!LO:DY:t=for&colon;	!	!	!	!	!	!	!	!	!	!	!	!LO:DY:t=for
8AA/L	f	.	8AA/L	f	8c`/L	f	8e`/L	f	2r	.	2r	.	8aa\L	.	8ccc\L	f
!	!	!	!	!	!	!	!	!	!	!	!	!	!	!LO:DY:t=for	!	!
8AA`/	.	.	8AA`/	.	8c`/	.	8e`/	.	.	.	.	.	8cc`\	f	8ee`\	.
8AA`/	.	.	8AA`/	.	8c`/	.	8e`/	.	.	.	.	.	8cc`\	.	8ee`\	.
8AA`/J	.	.	8AA`/J	.	8c`/J	.	8e`/J	.	.	.	.	.	8cc`\J	.	8ee`\J	.
=47	=47	=47	=47	=47	=47	=47	=47	=47	=47	=47	=47	=47	=47	=47	=47	=47
4AA/	.	.	4AA/	.	4c/	.	4e/	.	4r	.	4r	.	4cc\	.	4ee\	.
!	!	!	!	!	!	!	!	!	!LO:TX:b:t=Solo.	!	!	!	!	!	!	!
4r	.	.	4r	.	4r	.	4r	.	8r	.	8r	.	4r	.	4r	.
!	!	!	!	!	!	!	!	!	!	!	!LO:TX:b:t=Solo.	!	!	!	!	!
.	.	.	.	.	.	.	.	.	16d\LL	.	16a\LL	.	.	.	.	.
.	.	.	.	.	.	.	.	.	16g\JJ	.	16b\JJ	.	.	.	.	.
!	!	!	!LO:LB:g=original	!	!	!	!	!	!	!	!	!	!	!	!LO:LB:g=original	!
=48	=48	=48	=48	=48	=48	=48	=48	=48	=48	=48	=48	=48	=48	=48	=48	=48
!	!	!	!	!	!LO:TX:a:t=6.	!	!LO:TX:a:t=6.	!	!	!	!	!	!LO:TX:a:t=6.	!	!LO:TX:a:t=6.	!
.	.	.	.	.	.	.	.	.	8qqg/	.	8qqb/	.	.	.	.	.
!	!LO:DY:t=pia&colon;	!	!	!LO:DY:t=pia&colon;	!	!	!	!	!	!	!	!	!	!	!	!
8r	p	.	8r	p	2r	.	2r	.	4.a\	.	4.cc\	.	2r	.	2r	.
8d\	.	7	8d\	.	.	.	.	.	.	.	.	.	.	.	.	.
4D/	.	.	4D/	.	.	.	.	.	.	.	.	.	.	.	.	.
.	.	.	.	.	.	.	.	.	16d\LL	.	16a\LL	.	.	.	.	.
.	.	.	.	.	.	.	.	.	16g\JJ	.	16b\JJ	.	.	.	.	.
!	!	!	!LO:DY:t=pia&colon;	!	!	!	!	!	!	!	!	!	!	!	!	!
=49	=49	=49	=49	=49	=49	=49	=49	=49	=49	=49	=49	=49	=49	=49	=49	=49
.	.	.	.	.	.	.	.	.	8qqg/	.	8qqb/	.	.	.	.	.
8r	.	.	8r	.	2r	.	2r	.	4.a\	.	4.cc\	.	2r	.	2r	.
8d\	.	7	8d\	.	.	.	.	.	.	.	.	.	.	.	.	.
4D/	.	.	4D/	.	.	.	.	.	.	.	.	.	.	.	.	.
.	.	.	.	.	.	.	.	.	16g\LL	.	16b\LL	.	.	.	.	.
.	.	.	.	.	.	.	.	.	16b\JJ	.	16dd\JJ	.	.	.	.	.
!	!	!	!	!	!	!	!	!	!	!	!LO:LB:g=original	!	!	!	!	!
=50	=50	=50	=50	=50	=50	=50	=50	=50	=50	=50	=50	=50	=50	=50	=50	=50
!	!	!	!	!	!	!	!	!	!LO:TX:a:t=t.	!	!LO:TX:a:t=t.	!	!	!	!	!
.	.	.	.	.	.	.	.	.	8qqb/	.	8qqdd/	.	.	.	.	.
8r	.	.	8r	.	2r	.	2r	.	8.a\L	.	8.cc\L	.	2r	.	2r	.
!	!	!	!	!	!	!	!	!	!	!	!	!	!	!	!	!
8D\L	.	7	8D\L	.	.	.	.	.	.	.	.	.	.	.	.	.
.	.	.	.	.	.	.	.	.	32g\LL	.	32b\LL	.	.	.	.	.
.	.	.	.	.	.	.	.	.	32d\JJJ	.	32a\JJJ	.	.	.	.	.
8G\	.	.	8G\	.	.	.	.	.	8g\L	.	16b\LL	.	.	.	.	.
.	.	.	.	.	.	.	.	.	.	.	16g\	.	.	.	.	.
8GG/J	.	.	8GG/J	.	.	.	.	.	16b\L	.	16dd\	.	.	.	.	.
.	.	.	.	.	.	.	.	.	16g\JJ	.	16b\JJ	.	.	.	.	.
=51	=51	=51	=51	=51	=51	=51	=51	=51	=51	=51	=51	=51	=51	=51	=51	=51
4D/	.	6:5 4:3	4D/	.	2r	.	2r	.	(8g\L	.	(8b\L	.	2r	.	2r	.
.	.	.	.	.	.	.	.	.	16d\L)	.	16a\L)	.	.	.	.	.
.	.	.	.	.	.	.	.	.	16a`\JJ	.	16ff#`\JJ	.	.	.	.	.
8r	.	.	8r	.	.	.	.	.	(8a\L	.	(8ff#\L	.	.	.	.	.
8GG/	.	.	8GG/	.	.	.	.	.	16b\L)	.	16gg\L)	.	.	.	.	.
.	.	.	.	.	.	.	.	.	16g`\JJ	.	16b`\JJ	.	.	.	.	.
!LO:LB:g=original	!	!	!	!	!	!	!	!	!	!	!	!	!	!	!	!
=52	=52	=52	=52	=52	=52	=52	=52	=52	=52	=52	=52	=52	=52	=52	=52	=52
4D/	.	6:5 4:3	4D/	.	2r	.	2r	.	(8g\L	.	(8b\L	.	2r	.	2r	.
.	.	.	.	.	.	.	.	.	16d\L)	.	16a\L)	.	.	.	.	.
.	.	.	.	.	.	.	.	.	16a`\JJ	.	16ff#`\JJ	.	.	.	.	.
8r	.	.	8r	.	.	.	.	.	(8a\L	.	(8ff#\L	.	.	.	.	.
8GG/	.	.	8GG/	.	.	.	.	.	16b\L)	.	16gg\L)	.	.	.	.	.
.	.	.	.	.	.	.	.	.	16g`\JJ	.	16b`\JJ	.	.	.	.	.
=53	=53	=53	=53	=53	=53	=53	=53	=53	=53	=53	=53	=53	=53	=53	=53	=53
.	.	.	.	.	.	.	.	.	8qqa/	.	8qqcc/	.	.	.	.	.
8D\L	.	6 4	8D\L	.	2r	.	2r	.	8g\L	.	8b\L	.	2r	.	2r	.
16.D\L	.	5 3	16.D\L	.	.	.	.	.	8d\J	.	8a\J	.	.	.	.	.
32E\JJk	.	.	32E\JJk	.	.	.	.	.	.	.	.	.	.	.	.	.
!	!	!	!	!	!	!	!	!	!	!	!	!	!	!	!	!
16.D/LL	.	.	16.D/LL	.	.	.	.	.	4r	.	4r	.	.	.	.	.
!	!LO:DY:t=for&colon;	!	!	!LO:DY:t=for	!	!	!	!	!	!	!	!	!	!	!	!
32C/K	f	.	32C/K	f	.	.	.	.	.	.	.	.	.	.	.	.
16.BB/	.	.	16.BB/	.	.	.	.	.	.	.	.	.	.	.	.	.
32AA/JJk	.	.	32AA/JJk	.	.	.	.	.	.	.	.	.	.	.	.	.
!	!	!	!	!	!	!	!	!	!LO:LB:g=original	!	!	!	!	!	!	!
=54	=54	=54	=54	=54	=54	=54	=54	=54	=54	=54	=54	=54	=54	=54	=54	=54
8GG/L	.	.	8GG/L	.	(16B/LL	.	(16d/LL	.	[2b\	.	[2dd\	.	[2b\	.	[2dd\	.
.	.	.	.	.	16d/)	.	16g/)	.	.	.	.	.	.	.	.	.
8GG/	.	.	8GG/	.	(16d/	.	(16g/	.	.	.	.	.	.	.	.	.
.	.	.	.	.	16g/JJ)	.	16b/JJ)	.	.	.	.	.	.	.	.	.
8GG/	.	.	8GG/	.	(16g/LL	.	(16b\LL	.	.	.	.	.	.	.	.	.
.	.	.	.	.	16b/)	.	16dd\)	.	.	.	.	.	.	.	.	.
8GG/J	.	.	8GG/J	.	(16b/	.	(16dd\	.	.	.	.	.	.	.	.	.
.	.	.	.	.	16dd/JJ)	.	16gg\JJ)	.	.	.	.	.	.	.	.	.
=55	=55	=55	=55	=55	=55	=55	=55	=55	=55	=55	=55	=55	=55	=55	=55	=55
!	!	!	!	!	!	!	!	!LO:DY:t=pia&colon;	!	!	!	!	!	!	!	!
!	!	!	!	!	!	!LO:DY:t=pia&colon;	!	!	!	!	!	!	!	!	!	!
!	!	!	!	!	!	!	!	!	!	!	!	!	!	!LO:DY:t=pia&colon;	!	!LO:DY:t=pia&colon;
!	!	!	!	!	!	!	!	!	!	!	!	!LO:DY:t=pia&colon;	!	!	!	!
!	!LO:DY:t=pia&colon;	!	!	!LO:DY:t=pia&colon;	!	!	!	!	!	!LO:DY:t=pia&colon;	!	!	!	!	!	!
8GG/L	p	.	8GG/L	p	(16dd/LL	p	(16gg\LL	p	2b\]	p	2dd\]	p	2b\]	p	2dd\]	p
.	.	.	.	.	16b/)	.	16dd\)	.	.	.	.	.	.	.	.	.
8GG/	.	.	8GG/	.	(16b/	.	(16dd\	.	.	.	.	.	.	.	.	.
.	.	.	.	.	16g/JJ)	.	16b\JJ)	.	.	.	.	.	.	.	.	.
8GG/	.	.	8GG/	.	(16g/LL	.	(16b/LL	.	.	.	.	.	.	.	.	.
.	.	.	.	.	16d/)	.	16g/)	.	.	.	.	.	.	.	.	.
8GG/J	.	.	8GG/J	.	(16d/	.	(16g/	.	.	.	.	.	.	.	.	.
.	.	.	.	.	16B/JJ)	.	16d/JJ)	.	.	.	.	.	.	.	.	.
=56	=56	=56	=56	=56	=56	=56	=56	=56	=56	=56	=56	=56	=56	=56	=56	=56
!	!	!	!	!	!	!	!	!LO:DY:t=for&colon;	!	!	!	!	!	!	!	!
!	!	!	!	!	!	!LO:DY:t=for&colon;	!	!	!	!	!	!	!	!	!	!
!	!LO:DY:t=for&colon;	!	!	!LO:DY:t=for&colon;	!	!	!	!	!	!	!	!	!	!LO:DY:t=for&colon;	!	!LO:DY:t=for&colon;
8GG/L	f	6 4	8GG/L	f	(16c/LL	f	(16e/LL	f	8r	.	8r	.	[2cc\	f	[2ee\	f
.	.	.	.	.	16e/)	.	16g/)	.	.	.	.	.	.	.	.	.
!	!	!	!	!	!	!	!	!	!	!LO:DY:t=for&colon;	!	!LO:DY:t=for&colon;	!	!	!	!
8GG/	.	.	8GG/	.	(16e/	.	(16g/	.	16G/LL	f	16g\LL	f	.	.	.	.
.	.	.	.	.	16g/JJ)	.	16cc/JJ)	.	16G/JJ	.	16g\JJ	.	.	.	.	.
8GG/	.	.	8GG/	.	(16g/LL	.	(16cc\LL	.	8G/L	.	8g\L	.	.	.	.	.
.	.	.	.	.	16cc/)	.	16ee\)	.	.	.	.	.	.	.	.	.
8GG/J	.	.	8GG/J	.	(16cc/	.	(16ee\	.	8G/J	.	8g\J	.	.	.	.	.
.	.	.	.	.	16ee/JJ)	.	16gg\JJ)	.	.	.	.	.	.	.	.	.
=57	=57	=57	=57	=57	=57	=57	=57	=57	=57	=57	=57	=57	=57	=57	=57	=57
!	!	!	!	!	!	!	!	!LO:DY:t=pia&colon;	!	!	!	!	!	!	!	!
!	!	!	!	!	!	!LO:DY:t=pia&colon;	!	!	!	!	!	!	!	!	!	!
!	!	!	!	!	!	!	!	!	!	!	!	!	!	!LO:DY:t=pia&colon;	!	!LO:DY:t=pia&colon;
!	!LO:DY:t=pia&colon;	!	!	!LO:DY:t=pia&colon;	!	!	!	!	!	!LO:DY:t=pia&colon;	!	!LO:DY:t=pia&colon;	!	!	!	!
8GG/L	p	6 4	8GG/L	p	(16ee/LL	p	(16gg\LL	p	2G/	p	2g\	p	2cc\]	p	2ee\]	p
.	.	.	.	.	16cc/)	.	16ee\)	.	.	.	.	.	.	.	.	.
8GG/	.	.	8GG/	.	(16cc/	.	(16ee\	.	.	.	.	.	.	.	.	.
.	.	.	.	.	16g/JJ)	.	16cc\JJ)	.	.	.	.	.	.	.	.	.
8GG/	.	.	8GG/	.	(16g/LL	.	(16cc\LL	.	.	.	.	.	.	.	.	.
.	.	.	.	.	16e/)	.	16g\)	.	.	.	.	.	.	.	.	.
8GG/J	.	.	8GG/J	.	(16e/	.	(16g\	.	.	.	.	.	.	.	.	.
.	.	.	.	.	16c/JJ)	.	16e\JJ)	.	.	.	.	.	.	.	.	.
=58	=58	=58	=58	=58	=58	=58	=58	=58	=58	=58	=58	=58	=58	=58	=58	=58
!	!	!	!	!	!	!	!	!LO:DY:t=for&colon;	!	!	!	!	!	!	!	!
!	!	!	!	!	!	!LO:DY:t=for&colon;	!	!	!	!	!	!	!	!	!	!
!	!	!	!	!	!	!	!	!	!	!	!	!	!	!LO:DY:t=for	!	!LO:DY:t=for
!	!LO:DY:t=for&colon;	!	!	!LO:DY:t=for	!	!	!	!	!	!LO:DY:t=for	!	!LO:DY:t=for&colon;	!	!	!	!
8GG/L	f	n7r 3	8GG/L	f	(16B/LL	f	(16d/LL	f	[2g\	f	[2b\	f	[2dd\	f	[2ffn\	f
.	.	.	.	.	16d/)	.	16fn/)	.	.	.	.	.	.	.	.	.
8GG/	.	.	8GG/	.	(16d/	.	(16f/	.	.	.	.	.	.	.	.	.
.	.	.	.	.	16fn/JJ)	.	16b/JJ)	.	.	.	.	.	.	.	.	.
8GG/	.	.	8GG/	.	(16f/LL	.	(16b\LL	.	.	.	.	.	.	.	.	.
.	.	.	.	.	16b/)	.	16dd\)	.	.	.	.	.	.	.	.	.
8GG/J	.	.	8GG/J	.	(16b/	.	(16dd\	.	.	.	.	.	.	.	.	.
.	.	.	.	.	16dd/JJ)	.	16ffn\JJ)	.	.	.	.	.	.	.	.	.
!	!	!	!	!	!	!	!LO:LB:g=original	!	!	!	!	!	!	!	!	!
!	!	!	!	!	!LO:LB:g=original	!	!	!	!	!	!	!	!	!	!	!
=59	=59	=59	=59	=59	=59	=59	=59	=59	=59	=59	=59	=59	=59	=59	=59	=59
!	!	!	!	!	!	!	!	!LO:DY:t=pia&colon;	!	!	!	!	!	!	!	!
!	!	!	!	!	!	!LO:DY:t=pia&colon;	!	!	!	!	!	!	!	!	!	!
!	!	!	!	!	!	!	!	!	!	!	!	!	!	!LO:DY:t=pia&colon;	!	!LO:DY:t=pia&colon;
!	!LO:DY:t=pia&colon;	!	!	!LO:DY:t=pia&colon;	!	!	!	!	!	!LO:DY:t=pia&colon;	!	!LO:DY:t=pia&colon;	!	!	!	!
8GG/L	p	n7r 3	8GG/L	p	(16dd/LL	p	(16ffn\LL	p	2g\]	p	2b\]	p	2dd\]	p	2ff\]	p
.	.	.	.	.	16b/)	.	16dd\)	.	.	.	.	.	.	.	.	.
8GG/	.	.	8GG/	.	(16b/	.	(16dd\	.	.	.	.	.	.	.	.	.
.	.	.	.	.	16fn/JJ)	.	16b\JJ)	.	.	.	.	.	.	.	.	.
8GG/	.	.	8GG/	.	(16f/LL	.	(16b/LL	.	.	.	.	.	.	.	.	.
.	.	.	.	.	16d/)	.	16fn/)	.	.	.	.	.	.	.	.	.
8GG/J	.	.	8GG/J	.	(16d/	.	(16f/	.	.	.	.	.	.	.	.	.
.	.	.	.	.	16B/JJ)	.	16d/JJ)	.	.	.	.	.	.	.	.	.
=60	=60	=60	=60	=60	=60	=60	=60	=60	=60	=60	=60	=60	=60	=60	=60	=60
!	!	!	!	!	!	!	!	!LO:DY:t=for&colon;	!	!	!	!	!	!	!	!
!	!LO:DY:t=for&colon;	!	!	!LO:DY:t=for&colon;	!	!LO:DY:t=for.	!	!	!	!LO:DY:t=for	!	!LO:DY:t=for&colon;	!	!LO:DY:t=for&colon;	!	!LO:DY:t=for
4C/	f	.	4C/	f	8G/	f	8.e/L 8.cc 8.ee	f	4G/	f	4cc\	f	2cc\	f	4.ee\	f
.	.	.	.	.	4cc\	.	.	.	.	.	.	.	.	.	.	.
.	.	.	.	.	.	.	32dd/LL	.	.	.	.	.	.	.	.	.
.	.	.	.	.	.	.	32cc/JJJ	.	.	.	.	.	.	.	.	.
[4c\	.	6	[4c\	.	.	.	8aa\L	.	4r	.	4r	.	.	.	.	.
.	.	.	.	.	8b\	.	8gg\J	.	.	.	.	.	.	.	8ee\	.
!	!	!	!	!	!	!	!	!	!	!	!	!	!	!	!LO:LB:g=original	!
=61	=61	=61	=61	=61	=61	=61	=61	=61	=61	=61	=61	=61	=61	=61	=61	=61
!	!	!	!	!	!	!	!LO:TX:a:t=t.	!	!	!	!	!	!	!	!	!
.	.	.	.	.	.	.	8qqgg/	.	.	.	.	.	.	.	.	.
8c\L]	.	4 2	8c\L]	.	4a/	.	8.ff#X\L	.	4d/	.	4a\	.	4.dd\	.	4ff#\	.
16B\L	.	.	16B\L	.	.	.	.	.	.	.	.	.	.	.	.	.
16A\JJ	.	.	16A\JJ	.	.	.	32ee\LL	.	.	.	.	.	.	.	.	.
.	.	.	.	.	.	.	32dd\JJJ	.	.	.	.	.	.	.	.	.
8B\L	.	6	8B\L	.	[4g/	.	8gg\L	.	[4g\	.	8b\L	.	.	.	[4gg\	.
8c\J	.	.	8c\J	.	.	.	8cc\J	.	.	.	8ee\J	.	8cc\	.	.	.
!LO:LB:g=original	!	!	!LO:LB:g=original	!	!	!	!	!	!	!	!LO:LB:g=original	!	!	!	!	!
=62	=62	=62	=62	=62	=62	=62	=62	=62	=62	=62	=62	=62	=62	=62	=62	=62
!LO:TX:t=P:problem= mixed beam	!	!	!	!	!	!	!	!	!	!	!	!	!	!	!	!
8d\L	6 4	.	8d\L	.	4g/]	.	4b/	.	4g\]	.	4b\	.	4b/	.	8.gg\L]	.
8d\	.	.	8d\	.	.	.	.	.	.	.	.	.	.	.	.	.
.	.	.	.	.	.	.	.	.	.	.	.	.	.	.	32ff#\LL	.
.	.	.	.	.	.	.	.	.	.	.	.	.	.	.	32ee\JJJ	.
!	!	!	!	!	!LO:TX:a:t=t.	!	!LO:TX:a:t=t.	!	!	!	!LO:TX:a:t=t.	!	!LO:TX:a:t=t.	!	!LO:TX:a:t=t.	!
.	.	.	.	.	.	.	8qqb/	.	.	.	.	.	.	.	8qqee/	.
8D/	5 3	.	8D\	.	8.f#/L	.	8.a/L	.	4d/	.	4a\	.	4a/	.	4ff#\	.
8D/J	.	.	8D\J	.	.	.	.	.	.	.	.	.	.	.	.	.
.	.	.	.	.	16g/Jk	.	16g/Jk	.	.	.	.	.	.	.	.	.
=63	=63	=63	=63	=63	=63	=63	=63	=63	=63	=63	=63	=63	=63	=63	=63	=63
!	!	!	!	!	!	!	!	!	!	!	!	!	!	!	!	!
8G\L	.	.	8G\L	.	(16B/LL	.	(16d/LL	.	4B/	.	4g\	.	8b/L	.	8gg\L	.
.	.	.	.	.	16d/)	.	16g/)	.	.	.	.	.	.	.	.	.
8GG`/	.	.	8GG/	.	(16d/	.	(16g/	.	.	.	.	.	8b/	.	8dd\	.
.	.	.	.	.	16g/JJ)	.	16b/JJ)	.	.	.	.	.	.	.	.	.
8GG`/	.	.	8GG/	.	(16g/LL	.	(16b\LL	.	4r	.	4r	.	8b/	.	8dd\	.
.	.	.	.	.	16b/)	.	16dd\)	.	.	.	.	.	.	.	.	.
8GG`/J	.	.	8GG/J	.	(16b/	.	(16dd\	.	.	.	.	.	8b/J	.	8dd\J	.
.	.	.	.	.	16dd/JJ)	.	16gg\JJ)	.	.	.	.	.	.	.	.	.
=64	=64	=64	=64	=64	=64	=64	=64	=64	=64	=64	=64	=64	=64	=64	=64	=64
!	!	!	!	!	!	!	!	!	!LO:TX:a:t=1.	!	!LO:TX:a:t=1.	!	!	!	!	!
8GG`/L	.	.	8GG/L	.	(16dd\LL	.	(16gg\LL	.	2r	.	2r	.	[2b\	.	[2dd\	.
.	.	.	.	.	16gg\)	.	16bb\)	.	.	.	.	.	.	.	.	.
8GG`/	.	.	8GG/	.	(16gg\	.	(16bb\	.	.	.	.	.	.	.	.	.
.	.	.	.	.	16dd\JJ)	.	16gg\JJ)	.	.	.	.	.	.	.	.	.
8GG`/	.	.	8GG/	.	(16dd\LL	.	(16gg\LL	.	.	.	.	.	.	.	.	.
.	.	.	.	.	16b\)	.	16dd\)	.	.	.	.	.	.	.	.	.
8GG`/J	.	.	8GG/J	.	(16g\	.	(16b\	.	.	.	.	.	.	.	.	.
.	.	.	.	.	16d\JJ)	.	16g\JJ)	.	.	.	.	.	.	.	.	.
=65	=65	=65	=65	=65	=65	=65	=65	=65	=65	=65	=65	=65	=65	=65	=65	=65
8GG`/L	.	.	8GG/L	.	8B`/L	.	8d`/L	.	8r	.	8r	.	16.b\LL]	.	16.dd\LL]	.
.	.	.	.	.	.	.	.	.	.	.	.	.	32a\K	.	32cc\K	.
8GG`/	.	.	8GG/	.	8B`/	.	8d`/	.	8B`/L	.	8d`/L	.	16.b\	.	16.dd\	.
.	.	.	.	.	.	.	.	.	.	.	.	.	32cc\JJk	.	32ee\JJk	.
8GG`/	.	.	8GG/	.	8B`/	.	8d`/	.	8B`/	.	8d`/	.	16.b\LL	.	16.dd\LL	.
.	.	.	.	.	.	.	.	.	.	.	.	.	32cc\K	.	32ee\K	.
8GG`/J	.	.	8GG/J	.	8B`/J	.	8d`/J	.	8B`/J	.	8d`/J	.	16.b\	.	16.dd\	.
.	.	.	.	.	.	.	.	.	.	.	.	.	32a\JJk	.	32cc\JJk	.
=66	=66	=66	=66	=66	=66	=66	=66	=66	=66	=66	=66	=66	=66	=66	=66	=66
4GG/	.	.	4GG/	.	4B/	.	4d/	.	4B/	.	4d/	.	4g/	.	4b/	.
4r	.	.	4r	.	4r	.	4r	.	4r	.	4r	.	4r	.	4r	.
==	==	==	==	==	==	==	==	==	==	==	==	==	==	==	==	==
*-	*-	*-	*-	*-	*-	*-	*-	*-	*-	*-	*-	*-	*-	*-	*-	*-
!!!system-decoration: [(s1,s2)][(s3,s4)][(s5,s6,s7)]s8
!!!ENC: Berenika Jozajtis
!!!END: 2022-02-15
!!!ENC: Jan Barakat
!!!END: 2022-02-21
!!!YEC: Copyright 2022 Narodowy Instytut Fryderyka Chopina (https://polishscores.org)
!!!YEM: Licence CC BY 4.0 (https://creativecommons.org/licenses/by/4.0)
